Hatter-kde/actions/22/run-build-file.svg

<svg xmlns="http://www.w3.org/2000/svg" viewBox="0 0 22 22">
  <defs id="defs3051">
    <style type="text/css" id="current-color-scheme">
      .ColorScheme-Text {
        color:#363636;
      }
      </style>
  </defs>
 <path 
     style="fill:currentColor;fill-opacity:1;stroke:none" 
     d="M 11 3 C 10.32479 3.004 9.65279 3.092995 9 3.265625 L 9 4.2988281 L 9 4.3105469 A 7 7 0 0 0 7.6835938 4.8554688 L 7.6757812 4.8476562 L 6.9433594 4.1152344 C 5.7764094 4.8032844 4.8032844 5.7764094 4.1152344 6.9433594 L 4.6367188 7.4648438 L 4.8554688 7.6835938 A 7 7 0 0 0 4.3085938 9 L 4.2949219 9 L 3.2597656 9 C 3.0891456 9.65304 3.00187 10.32505 3 11 C 3.004 11.67521 3.093005 12.34721 3.265625 13 L 4.2988281 13 L 4.3105469 13 A 7 7 0 0 0 4.8554688 14.316406 L 4.6367188 14.535156 L 4.1152344 15.056641 C 4.8032844 16.223601 5.7763994 17.196716 6.9433594 17.884766 L 7.4648438 17.363281 L 7.6835938 17.144531 A 7 7 0 0 0 9 17.691406 L 9 18 L 9 18.740234 C 9.65304 18.910854 10.32504 18.99813 11 19 C 11.335 18.998 11.66853 18.973387 12 18.929688 L 12 17.923828 C 11.66955 17.972628 11.33491 17.9988 11 18 C 10.66455 17.9995 10.33106 17.974081 10 17.925781 L 10 17.921875 L 10 17 L 10 16.910156 A 6 6 0 0 1 7.5273438 15.886719 L 7.4648438 15.949219 L 6.8144531 16.599609 L 6.8105469 16.603516 C 6.2742469 16.201456 5.7991075 15.72484 5.3984375 15.1875 L 5.4003906 15.185547 L 6.0507812 14.535156 L 6.1152344 14.470703 A 6 6 0 0 1 5.0859375 12 L 5 12 L 4.0800781 12 L 4.0761719 12 C 4.0273719 11.66955 4.0012 11.33491 4 11 C 4.0005 10.66455 4.0259187 10.33106 4.0742188 10 L 4.078125 10 L 5 10 L 5.0898438 10 A 6 6 0 0 1 6.1132812 7.5273438 L 6.0507812 7.4648438 L 5.4003906 6.8144531 L 5.3964844 6.8105469 C 5.7985544 6.2742469 6.27516 5.7991075 6.8125 5.3984375 L 6.8144531 5.4003906 L 7.4648438 6.0507812 L 7.5292969 6.1152344 A 6 6 0 0 1 10 5.0859375 L 10 5 L 10 4.0800781 L 10 4.0761719 C 10.33044 4.0273719 10.66509 4.0012 11 4 C 11.33545 4.0005 11.66894 4.0259187 12 4.0742188 L 12 4.078125 L 12 5 L 12 5.0898438 A 6 6 0 0 1 14.472656 6.1132812 L 14.535156 6.0507812 L 15.185547 5.4003906 L 15.189453 5.3964844 C 15.725763 5.7985444 16.200883 6.27516 16.601562 6.8125 L 16.599609 6.8144531 L 15.949219 7.4648438 L 15.884766 7.5292969 A 6 6 0 0 1 16.914062 10 L 17 10 L 17.919922 10 L 17.923828 10 C 17.972628 10.33045 17.9988 10.66509 18 11 C 17.99951 11.33545 17.974081 11.66894 17.925781 12 L 18.933594 12 C 18.976317 11.668536 18.999072 11.334875 19 11 C 18.996 10.3248 18.907005 9.65279 18.734375 9 L 18 9 L 17.689453 9 A 7 7 0 0 0 17.144531 7.6835938 L 17.152344 7.6757812 L 17.884766 6.9433594 C 17.196736 5.7763994 16.223601 4.8032844 15.056641 4.1152344 L 14.328125 4.84375 L 14.316406 4.8554688 A 7 7 0 0 0 13 4.3085938 L 13 4.2949219 L 13 3.2597656 C 12.34696 3.0891456 11.67496 3.00187 11 3 z M 9 8 L 9 14 L 14 11 L 9 8 z M 13 13 L 13 14 L 13 18 L 13 19 L 17 19 L 17 18.992188 L 17.007812 19 L 18.007812 18 L 18 18 L 18 17.40625 L 18 14 L 18 13 L 17.691406 13 L 16.638672 13 L 13 13 z M 14 14 L 16.179688 14 L 17 14 L 17 17 L 16 17 L 16 18 L 14 18 L 14 14 z "
	 class="ColorScheme-Text"
     />
</svg>

<?xml version="1.0" encoding="UTF-8"?>
<svg viewBox="0 0 22 22" xmlns="http://www.w3.org/2000/svg">
 <defs id="defs3051">
  <style id="current-color-scheme" type="text/css">.ColorScheme-Text {
        color:#363636;
      }</style>
 </defs>
 <path class="ColorScheme-Text" d="m11 3c-0.67521 4e-3 -1.3472 0.092995-2 0.26562v1.0332 0.011719a7 7 0 0 0-1.3164 0.54492l-0.74023-0.74023c-1.167 0.68805-2.1401 1.6612-2.8281 2.8281l0.74023 0.74023a7 7 0 0 0-0.54688 1.3164h-0.013672-1.0352c-0.17062 0.65304-0.2579 1.325-0.25977 2 4e-3 0.67521 0.093005 1.3472 0.26562 2h1.0332 0.011719a7 7 0 0 0 0.54492 1.3164l-0.74023 0.74024c0.68805 1.167 1.6612 2.1401 2.8281 2.8281l0.74023-0.74024a7 7 0 0 0 1.3164 0.54688v0.30859 0.74023c0.65304 0.17062 1.325 0.2579 2 0.25977 0.335-2e-3 0.66853-0.026613 1-0.070312v-1.0059c-0.33045 0.0488-0.66509 0.074972-1 0.076172-0.33545-5e-4 -0.66894-0.025919-1-0.074219v-0.003906-0.92188-0.089844a6 6 0 0 1-2.4727-1.0234l-0.71289 0.71289-0.0039062 0.003907c-0.5363-0.40206-1.0114-0.87868-1.4121-1.416l0.0019531-0.001953 0.71484-0.71484a6 6 0 0 1-1.0293-2.4707h-0.085938-0.91992-0.0039062c-0.0488-0.33045-0.074972-0.66509-0.076172-1 5e-4 -0.33545 0.025919-0.66894 0.074219-1h0.0039062 0.92188 0.089844a6 6 0 0 1 1.0234-2.4727l-0.7168-0.7168c0.40207-0.5363 0.87868-1.0114 1.416-1.4121l0.7168 0.7168a6 6 0 0 1 2.4707-1.0293v-0.085938-0.91992-0.0039062c0.33044-0.0488 0.66509-0.074972 1-0.076172 0.33545 5e-4 0.66894 0.025919 1 0.074219v0.0039062 0.92188 0.089844a6 6 0 0 1 2.4727 1.0234l0.71289-0.71289 0.003906-0.0039062c0.53631 0.40206 1.0114 0.87868 1.4121 1.416l-0.001953 0.0019531-0.71484 0.71484a6 6 0 0 1 1.0293 2.4707h0.085938 0.91992 0.003906c0.0488 0.33045 0.074972 0.66509 0.076172 1-4.9e-4 0.33545-0.025919 0.66894-0.074219 1h1.0078c0.042723-0.33146 0.065478-0.66512 0.066406-1-4e-3 -0.6752-0.092995-1.3472-0.26562-2h-0.73438-0.31055a7 7 0 0 0-0.54492-1.3164l0.007813-0.0078126 0.73242-0.73242c-0.68803-1.167-1.6612-2.1401-2.8281-2.8281l-0.72852 0.72852-0.011719 0.011719a7 7 0 0 0-1.3164-0.54688v-0.013672-1.0352c-0.65304-0.17062-1.325-0.2579-2-0.25977zm-2 5v6l5-3-5-3zm4 5v1 4 1h4v-0.007812l0.007812 0.007812 1-1h-0.007812v-0.59375-3.4062-1h-0.30859-1.0527-3.6387zm1 1h2.1797 0.82031v3h-1v1h-2v-4z" fill="currentColor"/>
</svg>
